images/social/instagram.svg

<svg height="30" viewBox="0 0 30 30" width="30" xmlns="http://www.w3.org/2000/svg"><g fill="#fff" fill-rule="nonzero"><path d="m19 6.3c2.5957383 0 4.7 2.10426168 4.7 4.7v8c0 2.5957383-2.1042617 4.7-4.7 4.7h-8c-2.59573832 0-4.7-2.1042617-4.7-4.7v-8c0-2.59573832 2.10426168-4.7 4.7-4.7zm0 1.4h-8c-1.82253967 0-3.3 1.47746033-3.3 3.3v8c0 1.8225397 1.47746033 3.3 3.3 3.3h8c1.8225397 0 3.3-1.4774603 3.3-3.3v-8c0-1.82253967-1.4774603-3.3-3.3-3.3z"/><path d="m15 10.1544587c2.6698661-.0040123 4.8395089 2.1555859 4.8435268 4.8274609v.0160715c-.05625 2.6517857-2.1917411 4.7872768-4.8435268 4.8435268-2.6517857-.05625-4.7872768-2.1917411-4.8435268-4.8435268.05625-2.6517857 2.1917411-4.7872768 4.8435268-4.8435324zm0 1.3821484c-1.9084821.0060268-3.4553571 1.5529018-3.459375 3.461384 0 1.910491 1.5488839 3.459375 3.459375 3.459375s3.4613839-1.548884 3.4613839-3.459375c0-1.9104911-1.5488839-3.461384-3.4613839-3.461384z"/><path d="m20.8 10c-.0243832.3753623-.3251089.6736232-.701016.7-.3759071-.0263768-.6746008-.3246377-.698984-.7.0243832-.37536232.3251089-.67362319.701016-.7.3759071.02637681.6746008.32463768.698984.7z"/></g></svg>

<?xml version="1.0" encoding="UTF-8"?>
<svg width="30px" height="30px" viewBox="0 0 30 30" version="1.1" xmlns="http://www.w3.org/2000/svg" xmlns:xlink="http://www.w3.org/1999/xlink">
    <title>instagram</title>
    <g id="instagram" stroke="none" stroke-width="1" fill="none" fill-rule="evenodd">
        <path d="M19,6.3 C21.5957383,6.3 23.7,8.40426168 23.7,11 L23.7,11 L23.7,19 C23.7,21.5957383 21.5957383,23.7 19,23.7 L19,23.7 L11,23.7 C8.40426168,23.7 6.3,21.5957383 6.3,19 L6.3,19 L6.3,11 C6.3,8.40426168 8.40426168,6.3 11,6.3 L11,6.3 Z M19,7.7 L11,7.7 C9.17746033,7.7 7.7,9.17746033 7.7,11 L7.7,11 L7.7,19 C7.7,20.8225397 9.17746033,22.3 11,22.3 L11,22.3 L19,22.3 C20.8225397,22.3 22.3,20.8225397 22.3,19 L22.3,19 L22.3,11 C22.3,9.17746033 20.8225397,7.7 19,7.7 L19,7.7 Z" id="形状结合" fill="#FFFFFF" fill-rule="nonzero"></path>
        <path d="M15,10.1544587 C17.6698661,10.1504464 19.8395089,12.3100446 19.8435268,14.9819196 L19.8435268,14.9979911 C19.7872768,17.6497768 17.6517857,19.7852679 15,19.8415179 C12.3482143,19.7852679 10.2127232,17.6497768 10.1564732,14.9979911 C10.2127232,12.3462054 12.3482143,10.2107143 15,10.1544587 Z M15,11.5366071 C13.0915179,11.5426339 11.5446429,13.0895089 11.540625,14.9979911 C11.540625,16.9084821 13.0895089,18.4573661 15,18.4573661 C16.9104911,18.4573661 18.4613839,16.9084821 18.4613839,14.9979911 C18.4613839,13.0875 16.9125,11.5366071 15,11.5366071 Z" id="形状结合" fill="#FFFFFF" fill-rule="nonzero"></path>
        <path d="M20.8,10 C20.7756168,10.3753623 20.4748911,10.6736232 20.098984,10.7 C19.7230769,10.6736232 19.4243832,10.3753623 19.4,10 C19.4243832,9.62463768 19.7251089,9.32637681 20.101016,9.3 C20.4769231,9.32637681 20.7756168,9.62463768 20.8,10 Z" id="路径" fill="#FFFFFF" fill-rule="nonzero"></path>
    </g>
</svg>
